aussie-flag-emoji.svg

<svg height="600" viewBox="0 0 750 600" width="750" xmlns="http://www.w3.org/2000/svg"><path d="m75 0c-41.421 0-75 44.772-75 100v100 100h750s0-44.772 0-100v-100c0-55.228-33.579-100-75-100z"/><path d="m0 300v100 100c0 55.228 33.579 100 75 100h600c41.421 0 75-44.772 75-100v-100c0-55.228 0-100 0-100z" fill="#c00"/><path d="m525 300c0 82.843-67.157 150-150 150s-150-67.157-150-150 67.157-150 150-150 150 67.157 150 150z" fill="#ff0"/></svg>

<?xml version="1.0" encoding="UTF-8"?>
<svg width="750px" height="600px" viewBox="0 0 750 600" xmlns="http://www.w3.org/2000/svg" xmlns:xlink="http://www.w3.org/1999/xlink" version="1.1">
 <!-- Generated by Pixelmator Pro 2.0.6 -->
 <g id="New-Group">
  <path id="Path" d="M75 0 C33.579 0 0 44.772 0 100 L0 200 C0 255.228 0 300 0 300 L750 300 C750 300 750 255.228 750 200 L750 100 C750 44.772 716.421 0 675 0 L75 0 Z" fill="#000000" fill-opacity="1" stroke="none"/>
  <path id="Path-1" d="M0 300 C0 300 0 344.772 0 400 L0 500 C0 555.228 33.579 600 75 600 L675 600 C716.421 600 750 555.228 750 500 L750 400 C750 344.772 750 300 750 300 L0 300 Z" fill="#cc0000" fill-opacity="1" stroke="none"/>
 </g>
 <path id="Path-2" d="M525 300 C525 382.843 457.843 450 375 450 292.157 450 225 382.843 225 300 225 217.157 292.157 150 375 150 457.843 150 525 217.157 525 300 Z" fill="#ffff00" fill-opacity="1" stroke="none"/>
</svg>
